img/logo.svg

<svg width="137" height="56" viewBox="0 0 137 56" fill="none" xmlns="http://www.w3.org/2000/svg">
<path d="M52.7904 37.7569C52.1339 37.6811 51.4697 37.7965 50.8761 38.0894C50.8761 38.0894 48.2048 40.3456 34.9912 37.7479C25.2769 35.8332 20.2283 36.031 20.2283 36.031C20.2283 36.031 21.8577 24.7949 21.4125 21.6488C21.3921 21.4168 21.2832 21.2017 21.1088 21.0492C20.9343 20.8966 20.7081 20.8183 20.4776 20.8309C19.507 20.8309 18.9194 21.2084 18.9194 21.7297C19.0026 23.8537 18.9282 25.9811 18.6968 28.0938C18.2934 29.2101 17.5362 30.1606 16.5428 30.7978C15.5493 31.4349 14.3753 31.7231 13.203 31.6175C8.97354 31.3208 8.08313 28.2467 7.70916 26.1523C7.33519 24.0578 7.1215 18.2061 8.2345 15.8151C8.2345 15.8151 14.6098 16.0398 18.6166 12.5881C22.6235 9.13636 22.3742 6.15207 20.4776 4.87565C18.581 3.59924 14.1379 3.82396 10.7276 6.97005C8.76961 8.69668 7.22335 10.8476 6.20438 13.2622C6.20438 13.2622 1.19139 12.1836 2.34002 6.89814C3.55987 1.37899 11.0304 2.02619 11.0304 2.02619C12.5886 2.33181 12.6598 2.47563 13.1763 1.95428C13.6927 1.43292 14.0667 0.0845968 11.618 0.00369719C9.16943 -0.0772024 1.82358 1.14528 0.416738 6.07117C-1.08805 11.3117 1.69002 15.06 5.42082 15.6443C5.42082 15.6443 3.38179 24.723 5.90164 29.2174C6.60015 30.6377 7.70101 31.8164 9.06442 32.6039C10.4278 33.3913 11.9923 33.7519 13.5591 33.64C15.0283 33.64 17.6283 32.813 18.3673 31.6175C18.3673 31.6175 18.0201 34.8355 17.7262 36.004C17.7262 36.004 11.5468 35.9231 9.61463 36.9029C6.32903 38.6557 7.01465 42.7636 8.27902 44.2198C9.34751 45.4603 12.5619 46.1345 14.8858 45.0288C16.2159 44.3827 17.3648 43.4109 18.2279 42.2021C19.091 40.9932 19.6409 39.5856 19.8276 38.1074C23.5873 37.9121 27.3537 38.3248 30.9844 39.3299C36.4782 40.9838 44.1268 42.5299 46.424 42.5299C48.7213 42.5299 53.5473 41.8647 53.8411 39.9321C54.0014 38.6557 53.5295 37.9906 52.7904 37.7569ZM14.1201 7.71613C14.1201 7.71613 17.0406 5.46892 18.4386 6.87118C18.7524 7.21293 18.9334 7.65767 18.9481 8.12348C18.9628 8.58928 18.8103 9.04477 18.5187 9.40603C17.931 10.1791 16.3817 12.624 9.02697 13.8375C9.02697 13.8375 11.342 9.73862 14.1201 7.71613ZM14.3605 42.6917C14.3605 42.6917 10.327 44.912 9.90847 41.9007C9.74677 41.2728 9.80359 40.6079 10.0694 40.0172C10.3352 39.4265 10.7939 38.9459 11.3687 38.6557C12.0722 38.3052 13.0338 37.8647 17.2276 38.0175C17.1806 38.9779 16.8929 39.9106 16.3915 40.7281C15.89 41.5456 15.1912 42.2212 14.3605 42.6917Z" fill="#2D3440"/>
<path d="M65.5143 21.3342C65.5143 23.3657 65.5143 25.3882 65.5143 27.4197C65.5143 27.4197 65.5143 27.4916 65.5143 27.5275C65.4439 28.3367 65.1812 29.1168 64.7486 29.8017C64.4751 30.2991 64.1198 30.746 63.6979 31.1231C63.226 31.5366 62.9143 30.6107 62.7363 30.2242C61.4986 27.6084 62.0952 24.1028 62.576 21.3612C62.7986 20.0488 60.163 20.3904 59.9582 21.5589C59.4779 23.8958 59.3132 26.2876 59.4685 28.6691C59.2351 28.6877 59.0082 28.7557 58.8026 28.8688C58.597 28.9818 58.4173 29.1374 58.2753 29.3253C57.8212 30.3051 56.4945 33.5591 54.8651 32.2557C53.6897 31.3568 53.5651 28.8938 53.4404 27.5186C53.2986 25.6122 53.5471 23.6967 54.1706 21.8915C54.1171 22.0443 55.1856 19.3477 55.6575 20.3544C55.7851 20.8342 55.8025 21.3371 55.7084 21.8246C55.6143 22.3122 55.4111 22.7717 55.1144 23.168C53.7165 24.2286 55.889 24.6691 56.7349 24.0219C58.3377 22.8084 59.4062 18.8893 56.6726 18.4218C53.5829 17.9005 51.8288 21.0466 51.1788 23.5455C50.8342 24.9806 50.6845 26.4562 50.7336 27.932C50.3062 28.6871 48.8637 31.1141 48.0179 31.5276C47.0206 32.0489 47.0384 31.3208 47.074 30.8534C47.1096 30.386 47.5548 26.2242 47.7953 23.4196C48.006 22.3063 47.8496 21.1539 47.35 20.1387C46.9672 19.3567 43.7884 17.6039 40.9925 20.8938C39.4175 22.6294 38.4536 24.8411 38.2501 27.186C38.0631 27.5635 37.8583 27.968 37.6179 28.4084C36.2823 30.8804 34.5994 31.9231 34.0029 30.2062C33.4028 28.4178 33.1754 26.5235 33.3351 24.6421C35.4098 21.3998 36.9327 17.8299 37.8405 14.0802C39.1761 8.09366 38.9268 5.11835 38.2056 4.61498C37.4843 4.1116 34.4214 2.87114 32.5782 10.233C31.2108 15.4712 30.7321 20.9054 31.1625 26.3051C30.8775 26.9163 30.5214 27.6534 30.0673 28.4893C28.7317 30.9613 27.0577 32.004 26.4522 30.2871C25.8642 28.4962 25.6489 26.6019 25.82 24.723C27.8948 21.4807 29.4177 17.9108 30.3255 14.1611C31.7056 8.09366 31.4296 5.11835 30.7084 4.61498C29.9871 4.1116 26.9241 2.87114 25.0899 10.233C23.2557 17.5949 22.8906 25.6219 24.6447 31.0152C24.6447 31.0152 25.6063 34.0534 27.405 33.8287C28.8919 33.64 30.6638 32.1658 31.7056 29.4152C31.8234 29.9558 31.969 30.4899 32.1419 31.0152C32.1419 31.0152 33.1035 34.0534 34.9022 33.8287C36.122 33.6759 37.5734 32.6422 38.5885 30.7545C39.2206 32.3995 40.583 33.7568 42.3371 33.4512C44.7144 33.0197 45.2042 31.7163 45.2042 31.7163C45.2042 31.7163 45.1596 33.8557 46.6822 33.8557C48.0357 33.8557 49.1131 33.0557 50.1815 31.0152C50.5466 30.3231 50.7603 29.9186 50.8761 29.6849C51.1877 31.6175 51.9802 33.3343 53.5473 34.0265C56.2185 35.195 58.5514 32.9748 59.9226 30.7815C60.0983 31.3101 60.385 31.7941 60.763 32.2005C61.1411 32.607 61.6015 32.9263 62.113 33.1366C62.6961 33.3216 63.3182 33.3414 63.9117 33.194C64.5052 33.0466 65.0472 32.7376 65.4787 32.3006V35.4647C64.9905 35.4385 64.5069 35.5708 64.0986 35.8422C62.7354 36.9714 61.6781 38.4311 61.0257 40.0848C60.3732 41.7386 60.1469 43.5324 60.3678 45.2985C60.4054 45.7763 60.5596 46.2373 60.8166 46.6403C61.0736 47.0433 61.4255 47.3759 61.8408 47.6082C62.2561 47.8405 62.7219 47.9654 63.1967 47.9718C63.6714 47.9781 64.1404 47.8657 64.5616 47.6446C67.3219 46.4311 67.7403 42.2513 67.9719 39.6984C68.5328 33.5591 68.0965 27.168 68.0965 21.0106C68.0965 19.878 65.5143 20.4084 65.5143 21.3342ZM26.933 11.2667C27.5474 8.88468 28.1173 7.93186 28.7138 7.93186C29.3104 7.93186 29.5419 8.57007 29.1234 10.6285C28.347 14.5766 27.1251 18.4219 25.4817 22.0893C25.4817 22.0893 26.3187 13.6578 26.933 11.2667ZM34.4303 11.2667C35.0446 8.88468 35.6145 7.93186 36.1665 7.93186C36.7186 7.93186 37.0035 8.57007 36.585 10.6285C36.1665 12.687 34.8042 18.3769 32.9433 22.0893C32.9433 22.0893 33.8337 13.6578 34.4303 11.2667ZM45.8809 22.4758C45.8096 22.9972 45.4713 26.332 44.9905 28.1298C44.5097 29.9276 44.1802 30.5658 42.7377 31.186C41.2953 31.8062 40.5652 29.9096 40.5652 29.9096C39.5412 27.0332 40.9124 24.5163 42.0521 22.7904C43.1919 21.0646 44.3405 20.9118 44.9994 20.9927C45.1538 21.0315 45.299 21.1008 45.4269 21.1964C45.5548 21.292 45.6627 21.4121 45.7446 21.5498C45.8265 21.6876 45.8806 21.8402 45.904 21.9991C45.9274 22.158 45.9195 22.32 45.8809 22.4758ZM65.4431 38.6557C65.4968 41.0723 65.0162 43.4706 64.0363 45.676C63.413 45.8019 63.1459 45.5682 62.9322 44.5614C62.7852 43.5933 62.7852 42.6082 62.9322 41.64C63.2234 39.8616 64.0946 38.2324 65.4075 37.0108C65.452 37.5771 65.452 38.1254 65.4431 38.6557Z" fill="#2D3440"/>
<path d="M82.1827 18.7904C81.0246 18.2746 79.9791 17.5325 79.1065 16.6069C78.2339 15.6812 77.5515 14.5903 77.0985 13.3971C75.9588 9.96334 79.6985 7.42848 82.6814 7.58129C85.6642 7.73411 87.2581 10.8353 87.1334 13.6128C87.08 14.5926 86.4656 16.8039 85.2635 15.6533C84.4686 14.7424 83.982 13.5994 83.8745 12.3903C83.6964 11.3027 81.1143 11.9499 81.2923 13.0915C81.8088 16.3814 85.317 20.0039 88.3265 16.5612C88.9423 15.7817 89.3753 14.8717 89.5932 13.8992C89.8111 12.9268 89.8081 11.9172 89.5845 10.9461C89.361 9.97503 88.9226 9.0676 88.3023 8.29184C87.6819 7.51608 86.8957 6.89211 86.0026 6.46668C83.9878 5.67463 81.7597 5.6312 79.7161 6.34414C77.6725 7.05707 75.9463 8.47997 74.8458 10.3588C72.415 14.7184 77.2944 18.9792 80.7492 20.5342C86.2964 23.5275 86.5012 33.1635 79.1286 33.2265C77.6141 33.1914 76.1463 32.6895 74.9224 31.7881C73.6985 30.8867 72.7769 29.629 72.2814 28.1837C71.7739 26.6736 72.0321 21.3972 74.0622 20.9927C75.6739 20.678 75.2376 19.1949 73.6616 19.4735C70.3581 20.1207 69.1383 24.4264 69.4588 27.4377C69.9753 32.2377 74.4273 34.9254 78.9239 34.8894C80.9132 34.9471 82.8598 34.3 84.426 33.0604C85.9922 31.8208 87.0792 30.0669 87.4985 28.1028C87.8293 26.1682 87.4788 24.1777 86.5079 22.4767C85.5369 20.7757 84.0067 19.4715 82.1827 18.7904Z" fill="#2D3440"/>
<path d="M98.7265 33.0737C96.1888 31.6714 97.6402 26.2691 98.0231 24.1927C98.2724 22.8533 99.4032 20.7859 97.5868 20.3275C95.4587 19.8061 92.9299 21.8466 91.1046 23.7972C91.1031 21.5468 91.2668 19.2994 91.5943 17.0735C94.41 15.6553 96.6644 13.3129 97.9874 10.4308C99.145 8.09366 99.7148 3.23968 95.797 4.65992C92.2354 5.91836 91.0156 10.0532 89.9026 13.3701C89.482 14.6531 89.1576 15.9662 88.932 17.2982C88.5769 17.4488 88.2143 17.5808 87.8457 17.6937C86.3677 18.1612 86.5635 18.9612 88.0594 18.4938L88.7806 18.26C88.0683 23.3028 88.5491 28.5882 89.0033 33.5411C89.0033 34.0265 91.6745 33.5411 91.5765 32.84C91.3806 30.6287 91.2115 28.4174 91.1402 26.2242C91.3552 26.1607 91.5491 26.0395 91.7012 25.8736C92.5205 24.8353 93.4391 23.8808 94.4436 23.0241C94.7108 22.7814 94.9868 22.5567 95.2628 22.341L95.6724 22.0354C96.269 21.5589 96.3847 21.55 96.0107 22.0354C95.8712 22.8925 95.6869 23.7417 95.4587 24.5792C94.969 27.2759 93.5621 32.5703 96.6518 34.2692C97.3196 34.6108 99.7237 33.604 98.7265 33.0737ZM92.9477 11.4016C93.2238 10.6015 93.5888 9.81053 93.9272 9.03749C94.3457 8.06669 95.4676 4.74981 96.2779 6.34083C96.9279 7.60826 95.9039 9.68468 95.4498 10.8982C94.7348 12.7954 93.4994 14.4479 91.8882 15.6623C92.148 14.22 92.5019 12.7967 92.9477 11.4016Z" fill="#2D3440"/>
<path d="M108.298 26.7725C108.298 23.8151 107.969 20.0219 104.47 19.7072C100.632 19.3567 99.1272 23.4107 99.0737 26.4399C99.0682 26.5471 99.095 26.6535 99.1507 26.745C99.2063 26.8364 99.2882 26.9087 99.3854 26.9523C99.3854 29.7837 100.062 33.4782 103.401 33.4152C107.123 33.3613 108.298 30.0804 108.298 26.7725ZM103.846 31.6984C101.674 30.7995 101.87 27.0152 102.012 25.1904C102.025 25.0987 102.012 25.0051 101.974 24.9207C101.936 24.8363 101.875 24.7646 101.798 24.714C102.066 22.9163 102.76 20.2196 104.345 21.5589C105.609 22.6556 105.636 25.2893 105.698 26.8084C105.752 27.8691 105.618 32.3635 103.855 31.6984H103.846Z" fill="#2D3440"/>
<path d="M136.346 42.9973C135.349 40.4086 133.158 39.4018 130.745 39.2939C130.476 38.6368 130.139 38.0101 129.739 37.4243C126.258 32.2197 117.995 32.9298 112.394 35.6265C112.394 34.8085 112.314 33.9905 112.278 33.1725C113.393 33.2634 114.511 33.063 115.527 32.5907C116.542 32.1184 117.42 31.39 118.075 30.4759C119.562 28.3276 119.348 24.5163 118.761 22.1073C118.209 19.8421 116.018 20.2466 114.371 21.0016C113.765 21.2914 113.206 21.6734 112.715 22.1342C112.715 21.532 112.813 20.9207 112.857 20.3365C112.955 18.9522 110.328 19.3027 110.239 20.5252C109.83 26.0893 109.972 31.6354 109.848 37.1906C108.268 38.5011 107.013 40.1661 106.182 42.0528C105.352 43.9395 104.97 45.9959 105.066 48.0581C105.066 50.0985 106.785 51.6536 108.628 50.1974C111.201 48.2019 111.985 44.2378 112.341 41.2086C112.487 39.8566 112.534 38.4956 112.483 37.1366C114.491 35.8074 116.836 35.0919 119.237 35.0759C121.638 35.06 123.993 35.7443 126.017 37.0467C126.887 37.6665 127.583 38.5025 128.039 39.4737C126.615 39.7308 125.232 40.1782 123.925 40.8041C122.402 41.5412 120.141 43.285 120.248 45.2356C120.23 45.8528 120.423 46.4573 120.794 46.9481C121.166 47.439 121.692 47.7863 122.287 47.9322C122.368 47.9738 122.455 48.0011 122.545 48.0131C128.012 48.912 132.081 45.6491 131.298 41.0558C133.969 42.5209 134.957 45.9187 134.013 48.8401C131.885 55.402 123.693 56.8671 118.921 52.4806C118.404 52.0132 116.081 53.0019 116.49 53.3795C123.382 59.7346 140.549 53.8559 136.346 42.9973ZM109.687 41.4063C109.612 42.9935 109.269 44.556 108.672 46.0266C108.45 46.521 108.209 46.9974 107.951 47.4648C107.951 47.4648 107.72 47.5187 107.675 46.8176C107.671 44.2993 108.395 41.8345 109.759 39.7254C109.741 40.2827 109.723 40.849 109.687 41.4063ZM112.474 25.3522C112.526 25.308 112.571 25.2565 112.608 25.1994C113.086 24.3855 113.654 23.6287 114.3 22.9432C114.766 22.4084 115.309 21.9478 115.911 21.5769C116.196 21.7207 116.49 22.4758 116.597 23.4916C116.873 25.9904 116.989 32.5703 113.089 31.9501C112.785 31.9364 112.481 31.9885 112.198 32.1029C112.189 29.8197 112.314 27.5905 112.474 25.3522ZM124.121 46.6918H124.067C122.572 46.3322 122.732 44.894 122.928 43.9232C123.364 41.649 126.106 40.4265 128.368 40.3277C129.517 43.5636 128.635 47.4378 124.121 46.6918Z" fill="#2D3440"/>
</svg>

<svg xmlns="http://www.w3.org/2000/svg" fill="none" viewBox="0 0 137 56">
  <path fill="#2D3440" d="M52.79 37.757a3.435 3.435 0 0 0-1.914.332s-2.671 2.257-15.885-.341c-9.714-1.915-14.763-1.717-14.763-1.717s1.63-11.236 1.184-14.382a.901.901 0 0 0-.303-.6.885.885 0 0 0-.631-.218c-.971 0-1.559.377-1.559.899a42.997 42.997 0 0 1-.222 6.364 5.384 5.384 0 0 1-2.154 2.704 5.304 5.304 0 0 1-3.34.82c-4.23-.297-5.12-3.371-5.494-5.466-.374-2.094-.587-7.946.526-10.337 0 0 6.375.225 10.382-3.227 4.006-3.452 3.757-6.436 1.86-7.712-1.896-1.277-6.34-1.052-9.75 2.094a17.415 17.415 0 0 0-4.523 6.292S1.191 12.184 2.34 6.898c1.22-5.519 8.69-4.872 8.69-4.872 1.559.306 1.63.45 2.146-.072.517-.521.89-1.87-1.558-1.95C9.169-.077 1.824 1.145.417 6.07c-1.505 5.24 1.273 8.989 5.004 9.573 0 0-2.04 9.079.48 13.573a7.97 7.97 0 0 0 3.163 3.387 7.865 7.865 0 0 0 4.495 1.036c1.47 0 4.07-.827 4.808-2.023 0 0-.347 3.219-.64 4.387 0 0-6.18-.08-8.112.899-3.286 1.753-2.6 5.86-1.336 7.317 1.069 1.24 4.283 1.915 6.607.809a8.871 8.871 0 0 0 3.342-2.827 8.985 8.985 0 0 0 1.6-4.095 35.01 35.01 0 0 1 11.156 1.223c5.494 1.654 13.143 3.2 15.44 3.2 2.297 0 7.123-.665 7.417-2.598.16-1.276-.312-1.941-1.05-2.175ZM14.12 7.717s2.92-2.248 4.319-.846a1.942 1.942 0 0 1 .08 2.535c-.588.773-2.137 3.218-9.492 4.431 0 0 2.315-4.098 5.093-6.12Zm.24 34.975s-4.033 2.22-4.452-.791a2.856 2.856 0 0 1 .161-1.884 2.82 2.82 0 0 1 1.3-1.361c.703-.35 1.665-.791 5.859-.639a5.72 5.72 0 0 1-.837 2.711 5.652 5.652 0 0 1-2.03 1.964Z"/>
  <path fill="#2D3440" d="M65.514 21.334v6.193c-.07.81-.333 1.59-.765 2.275a5.009 5.009 0 0 1-1.051 1.321c-.472.414-.784-.512-.962-.899-1.237-2.616-.64-6.121-.16-8.863.223-1.312-2.413-.97-2.618.198a26.693 26.693 0 0 0-.49 7.11 1.654 1.654 0 0 0-1.193.656c-.454.98-1.78 4.234-3.41 2.93-1.175-.898-1.3-3.361-1.425-4.736a14.048 14.048 0 0 1 .73-5.627c-.053.152 1.016-2.544 1.487-1.538a3.293 3.293 0 0 1-.543 2.814c-1.397 1.06.775 1.501 1.62.854 1.604-1.214 2.672-5.133-.061-5.6-3.09-.521-4.844 2.625-5.494 5.123a16.446 16.446 0 0 0-.445 4.387c-.428.755-1.87 3.182-2.716 3.596-.997.52-.98-.207-.944-.675.036-.467.48-4.629.721-7.433a5.23 5.23 0 0 0-.445-3.281c-.383-.782-3.562-2.535-6.358.755a10.746 10.746 0 0 0-2.742 6.292c-.187.378-.392.782-.632 1.222-1.336 2.472-3.019 3.515-3.615 1.798a13.82 13.82 0 0 1-.668-5.564A34.78 34.78 0 0 0 37.84 14.08c1.336-5.986 1.087-8.962.366-9.465-.722-.503-3.785-1.744-5.628 5.618a48.41 48.41 0 0 0-1.416 16.072 39.175 39.175 0 0 1-1.095 2.184c-1.335 2.472-3.01 3.515-3.615 1.798a13.822 13.822 0 0 1-.632-5.564 34.778 34.778 0 0 0 4.506-10.562c1.38-6.067 1.104-9.043.382-9.546-.72-.503-3.784-1.744-5.618 5.618-1.834 7.362-2.2 15.389-.445 20.782 0 0 .961 3.038 2.76 2.814 1.487-.189 3.259-1.663 4.3-4.414.118.54.264 1.075.437 1.6 0 0 .961 3.038 2.76 2.814 1.22-.153 2.671-1.187 3.687-3.075.632 1.646 1.994 3.003 3.748 2.697 2.377-.431 2.867-1.735 2.867-1.735s-.044 2.14 1.478 2.14c1.354 0 2.431-.8 3.5-2.84.365-.693.578-1.097.694-1.331.312 1.933 1.104 3.65 2.671 4.341 2.672 1.169 5.004-1.051 6.376-3.245a3.88 3.88 0 0 0 .84 1.42c.378.406.839.725 1.35.936a3.308 3.308 0 0 0 1.799.057 3.33 3.33 0 0 0 1.567-.893v3.164a2.272 2.272 0 0 0-1.38.377 10.521 10.521 0 0 0-3.073 4.243 10.619 10.619 0 0 0-.658 5.213 2.912 2.912 0 0 0 1.473 2.31 2.856 2.856 0 0 0 2.72.037c2.76-1.214 3.18-5.394 3.41-7.947.562-6.139.126-12.53.126-18.687 0-1.133-2.583-.603-2.583.323ZM26.933 11.267c.614-2.382 1.184-3.335 1.78-3.335.597 0 .829.638.41 2.697a53.067 53.067 0 0 1-3.641 11.46s.837-8.431 1.451-10.822Zm7.497 0c.615-2.382 1.184-3.335 1.736-3.335.553 0 .838.638.419 2.697-.419 2.058-1.78 7.748-3.642 11.46 0 0 .89-8.431 1.487-10.822Zm11.45 11.209c-.07.521-.409 3.856-.89 5.654-.48 1.798-.81 2.436-2.252 3.056-1.443.62-2.173-1.276-2.173-1.276-1.024-2.877.347-5.394 1.487-7.12 1.14-1.725 2.288-1.878 2.947-1.797a1.204 1.204 0 0 1 .746.557 1.23 1.23 0 0 1 .136.926Zm19.563 16.18a16.396 16.396 0 0 1-1.407 7.02c-.623.126-.89-.108-1.104-1.115a9.732 9.732 0 0 1 0-2.921 8.113 8.113 0 0 1 2.475-4.63c.045.567.045 1.115.036 1.646Zm16.74-19.866a9.592 9.592 0 0 1-3.077-2.183 9.696 9.696 0 0 1-2.007-3.21c-1.14-3.434 2.6-5.969 5.582-5.816 2.983.153 4.577 3.254 4.452 6.032-.053.98-.667 3.19-1.87 2.04a5.735 5.735 0 0 1-1.389-3.263c-.178-1.087-2.76-.44-2.582.701.517 3.29 4.025 6.913 7.034 3.47a6.667 6.667 0 0 0-.024-8.27 6.556 6.556 0 0 0-2.3-1.824 9.037 9.037 0 0 0-6.286-.123 9.137 9.137 0 0 0-4.87 4.015c-2.431 4.36 2.448 8.62 5.903 10.175 5.547 2.994 5.752 12.63-1.62 12.693a7.38 7.38 0 0 1-4.207-1.439 7.492 7.492 0 0 1-2.64-3.604c-.508-1.51-.25-6.787 1.78-7.191 1.612-.315 1.176-1.798-.4-1.52-3.304.648-4.524 4.953-4.203 7.965.516 4.8 4.968 7.487 9.465 7.451a8.468 8.468 0 0 0 5.502-1.829 8.613 8.613 0 0 0 3.073-4.957 8.473 8.473 0 0 0-.991-5.626 8.346 8.346 0 0 0-4.325-3.687Z"/>
  <path fill="#2D3440" d="M98.727 33.074c-2.538-1.403-1.087-6.805-.704-8.881.25-1.34 1.38-3.407-.436-3.866-2.128-.52-4.657 1.52-6.482 3.47-.002-2.25.162-4.498.49-6.724a13.944 13.944 0 0 0 6.392-6.642c1.158-2.337 1.728-7.191-2.19-5.771-3.562 1.258-4.781 5.393-5.894 8.71a27.18 27.18 0 0 0-.971 3.928c-.355.15-.718.283-1.086.396-1.478.467-1.282 1.267.213.8l.722-.234c-.713 5.043-.232 10.328.222 15.281 0 .486 2.671 0 2.573-.701-.195-2.211-.364-4.423-.436-6.616.215-.063.41-.184.561-.35a20.15 20.15 0 0 1 2.743-2.85c.267-.243.543-.467.819-.683l.41-.306c.596-.476.712-.485.338 0a24.88 24.88 0 0 1-.552 2.544c-.49 2.697-1.897 7.991 1.193 9.69.668.342 3.072-.665 2.075-1.195Zm-5.78-21.672c.277-.8.642-1.591.98-2.365.419-.97 1.54-4.287 2.35-2.696.65 1.267-.373 3.344-.827 4.557a10.68 10.68 0 0 1-3.562 4.764 33.52 33.52 0 0 1 1.06-4.26Z"/>
  <path fill="#2D3440" d="M108.298 26.773c0-2.958-.329-6.751-3.828-7.066-3.838-.35-5.343 3.704-5.396 6.733a.534.534 0 0 0 .311.512c0 2.832.677 6.526 4.016 6.463 3.722-.054 4.897-3.335 4.897-6.642Zm-4.452 4.925c-2.172-.899-1.976-4.683-1.834-6.508a.49.49 0 0 0-.214-.476c.268-1.798.962-4.494 2.547-3.155 1.264 1.097 1.291 3.73 1.353 5.25.054 1.06-.08 5.555-1.843 4.89h-.009Zm32.5 11.299c-.997-2.588-3.188-3.595-5.601-3.703a10.102 10.102 0 0 0-1.006-1.87c-3.481-5.204-11.744-4.494-17.345-1.797 0-.819-.08-1.637-.116-2.455a6.458 6.458 0 0 0 3.249-.581 6.52 6.52 0 0 0 2.548-2.115c1.487-2.148 1.273-5.96.686-8.369-.552-2.265-2.743-1.86-4.39-1.105a6.55 6.55 0 0 0-1.656 1.132c0-.602.098-1.213.142-1.797.098-1.385-2.529-1.034-2.618.188-.409 5.564-.267 11.11-.391 16.666a13.257 13.257 0 0 0-3.666 4.862 13.372 13.372 0 0 0-1.116 6.005c0 2.04 1.719 3.596 3.562 2.14 2.573-1.996 3.357-5.96 3.713-8.99a28.11 28.11 0 0 0 .142-4.071 12.383 12.383 0 0 1 6.754-2.061 12.377 12.377 0 0 1 6.78 1.97 6.227 6.227 0 0 1 2.022 2.428 16.179 16.179 0 0 0-4.114 1.33c-1.523.737-3.784 2.481-3.677 4.432a2.71 2.71 0 0 0 .546 1.712c.372.491.898.838 1.493.984a.794.794 0 0 0 .258.081c5.467.899 9.536-2.364 8.753-6.957 2.671 1.465 3.659 4.863 2.715 7.784-2.128 6.562-10.32 8.027-15.092 3.64-.517-.467-2.84.522-2.431.9 6.892 6.355 24.059.476 19.856-10.383Zm-26.659-1.59a14.046 14.046 0 0 1-1.015 4.62c-.222.494-.463.97-.721 1.438 0 0-.231.054-.276-.647a13.024 13.024 0 0 1 2.084-7.093c-.018.558-.036 1.124-.072 1.681Zm2.787-16.055a.7.7 0 0 0 .134-.153 12.578 12.578 0 0 1 1.692-2.256 7.024 7.024 0 0 1 1.611-1.366c.285.144.579.899.686 1.915.276 2.498.392 9.078-3.508 8.458a2.123 2.123 0 0 0-.891.153c-.009-2.283.116-4.513.276-6.75Zm11.647 21.34h-.054c-1.495-.36-1.335-1.798-1.139-2.769.436-2.274 3.178-3.497 5.44-3.595 1.149 3.236.267 7.11-4.247 6.364Z"/>
</svg>
